X: 2
T: Richard Dwyer's
R: reel
M: 4/4
L: 1/8
K: Ador
A2EA (3Bcd e^c|d2BG AGEz|EAcA (3Bcd gf|eaag a2ag|e2ed cA A2|Bgdc BdcB|AEcE d2 (3Bcd|edcA EA A2:||a2ea c'aea|g2dg bgdz|aged c2ed|cABG EAA2|a2ea c'aea|gedc BGG2|A2 (3Bcd e2af|gedB cAA2:||A2EA (3Bcd e^c|d2BG AGEG|EAcA (3Bcd gf|eaag a2ag|e2ed cA A2|Bgdc BdcB|AEcE d2 (3Bcd|edcA EA A2:||a2ea c'aea|g2dg bgdg|aged c2ed|cABG EAA2|a2ea eaea|gedc BGG2|A2 (3Bcd eaaf|gedB cAA2:||


Tune 1131	Setting 28086

